icons/fill-new-building-home-house-finance.svg

<svg xmlns="http://www.w3.org/2000/svg" width="32px" height="32px" viewBox="0 0 32 32" version="1.1">
    <title>fill-new-building-home-house-finance</title>
    <g id="fill-new-building-home-house-finance" stroke-width="1" fill-rule="evenodd">
        <path d="M15.3792971,2.49138983 C15.7430094,2.20345093 16.2569906,2.20345093 16.6207029,2.49138983 L27.6207029,11.1997232 C27.8602863,11.3893933 28,11.6781958 28,11.983769 L28,29 C28,29.5522847 27.5522847,30 27,30 L5,30 C4.44771525,30 4,29.5522847 4,29 L4,11.983769 C4,11.6781958 4.13971367,11.3893933 4.37929706,11.1997232 L15.3792971,2.49138983 Z M19.6,11.2 C19.1581722,10.8686292 18.5313708,10.9581722 18.2,11.4 L16,14.333 L13.8,11.4 C13.4686292,10.9581722 12.8418278,10.8686292 12.4,11.2 C11.9581722,11.5313708 11.8686292,12.1581722 12.2,12.6 L14.75,15.9994357 L12,16 C11.4871642,16 11.0644928,16.3860402 11.0067277,16.8833789 L11,17 C11,17.5522847 11.4477153,18 12,18 L15,17.9994357 L15,19.9994357 L12,20 C11.4871642,20 11.0644928,20.3860402 11.0067277,20.8833789 L11,21 C11,21.5522847 11.4477153,22 12,22 L15,21.9994357 L15,24 C15,24.5128358 15.3860402,24.9355072 15.8833789,24.9932723 L16,25 C16.5522847,25 17,24.5522847 17,24 L17,21.9994357 L20,22 C20.5128358,22 20.9355072,21.6139598 20.9932723,21.1166211 L21,21 C21,20.4477153 20.5522847,20 20,20 L17,19.9994357 L17,17.9994357 L20,18 C20.5128358,18 20.9355072,17.6139598 20.9932723,17.1166211 L21,17 C21,16.4477153 20.5522847,16 20,16 L17.25,15.9994357 L19.8,12.6 C20.1058808,12.192159 20.053113,11.6267073 19.6956754,11.2814959 L19.6,11.2 Z" id="&#24418;&#29366;" />
    </g>
</svg>

<svg xmlns="http://www.w3.org/2000/svg" viewBox="0 0 32 32"><path fill="currentColor" d="M15.38 2.491a1 1 0 0 1 1.24 0l11 8.709a1 1 0 0 1 .38.784V29a1 1 0 0 1-1 1H5a1 1 0 0 1-1-1V11.984a1 1 0 0 1 .38-.784zM19.6 11.2a1 1 0 0 0-1.4.2L16 14.333 13.8 11.4a1 1 0 0 0-1.6 1.2l2.55 3.4H12a1 1 0 0 0-.993.883L11 17a1 1 0 0 0 1 1h3v2h-3a1 1 0 0 0-.993.883L11 21a1 1 0 0 0 1 1h3v2a1 1 0 0 0 .883.993L16 25a1 1 0 0 0 1-1v-2h3a1 1 0 0 0 .993-.883L21 21a1 1 0 0 0-1-1h-3v-2h3a1 1 0 0 0 .993-.883L21 17a1 1 0 0 0-1-1h-2.75l2.55-3.4a1 1 0 0 0-.104-1.319z"/></svg>
